img/booth.svg

<svg xmlns="http://www.w3.org/2000/svg" width="1024" height="1024" fill="none"><rect width="1024" height="1024" fill="#FC4D50" rx="20.7%" ry="20.7%"/><path fill="#fff" fill-rule="evenodd" d="M773.828 438.341v-49.273L650.744 192h-42.517l-67.134 161.238-66.016-138.792-36.939-.064-111.866 264.271v-250.82h-76.1v22.174H192v77.253h58.172v223.046c0 19.792 16.055 35.835 35.832 35.835h38.029V832l77.65-.054.012-111.302c0-61.68 53.331-111.681 119.268-112.081.235 0 .482-.028.744-.028h.168c107.847.077 195.264 81.745 195.264 182.448V832h56.689V611.427H832v-121.94z" clip-rule="evenodd"/></svg>

<svg width="1024" height="1024" viewBox="0 0 1024 1024" fill="none" xmlns="http://www.w3.org/2000/svg">
<path fill-rule="evenodd" clip-rule="evenodd" d="M0 1024H1024V0H0V1024Z" fill="#FC4D50"/>
<path fill-rule="evenodd" clip-rule="evenodd" d="M773.828 438.341V389.068L650.744 192H608.227L541.093 353.238L475.077 214.446L438.138 214.382L326.272 478.653V227.833H250.172V250.007H192V327.26H250.172V550.306C250.172 570.098 266.227 586.141 286.004 586.141H324.033V832L401.683 831.946C401.683 831.946 401.695 720.762 401.695 720.644C401.695 658.964 455.026 608.963 520.963 608.563C521.198 608.563 521.445 608.535 521.707 608.535H521.744H521.786H521.875C629.722 608.612 717.139 690.28 717.139 790.983V832H773.828V611.427H832V489.487L773.828 438.341Z" fill="white"/>
</svg>
